X: 3263
T: Up and war them a' Willie.   a Reel.
%R: reel
B: Niel Gow & Sons "Complete Repository" v.3 p.26 #3
Z: 2021 John Chambers <jc:trillian.mit.edu>
M: C|
L: 1/8
K: A
% - - - - - - - - - -
V: 1 staves=2
e |\
A/A/A cA d2-df | A/A/A cA TB2-B>c | A/A/A cA defa | edcB A3e || A/A/A cA d2(.d.f) |
A/A/A cA TB2B>c | A/A/A cA defa | edcB A3 |[| g | afec d2df | (a/g/f/e/) a>c TB2Bg | afec defa |
edcB A3g || (a/g/f/e/) ac d2df | (a/g/f/e/) ac TB3g | aefc defa | edcB A3 |]
% - - - - - - - - - -
V: 2 clef=bass middle=d
z | a2a2 d2d2 | a2a2 e2e2 | a2=g2 f2d2 | e2e2 A3z || a2a2 d2d2 |
a2a2 e2e2 | a2=g2 f2d2 | e2e2 A3 |[| z | a2a2 d2d2 | a2a2 e2e2 | a2a2 d2d2 |
e2e2 A2A2 || a2a2 d2d2 | a2a2 e2e2 | a2a2 d2d2 | e2E2 A3 |]

%%text Gows 3d Repository.


